X:1
T:César Franck
T:Domine non secundum
T:Copyright © 2008 by the Choral Public Domain Library (http://www.cpdl.org) Edition may be freely distributed, duplicated, performed, or recorded.
T:Copyright © 2008 by the Choral Public Domain Library (http://www.cpdl.org) Edition may be freely distributed, duplicated, performed, or recorded.
T:Copyright © 2008 by the Choral Public Domain Library (http://www.cpdl.org) Edition may be freely distributed, duplicated, performed, or recorded.
T:Copyright © 2008 by the Choral Public Domain Library (http://www.cpdl.org) Edition may be freely distributed, duplicated, performed, or recorded.
T:Copyright © 2008 by the Choral Public Domain Library (http://www.cpdl.org) Edition may be freely distributed, duplicated, performed, or recorded.
T:Copyright © 2008 by the Choral Public Domain Library (http://www.cpdl.org) Edition may be freely distributed, duplicated, performed, or recorded.
T:Copyright © 2008 by the Choral Public Domain Library (http://www.cpdl.org) Edition may be freely distributed, duplicated, performed, or recorded.
T:Copyright © 2008 by the Choral Public Domain Library (http://www.cpdl.org) Edition may be freely distributed, duplicated, performed, or recorded.
T:Copyright © 2008 by the Choral Public Domain Library (http://www.cpdl.org) Edition may be freely distributed, duplicated, performed, or recorded.
T:Copyright © 2008 by the Choral Public Domain Library (http://www.cpdl.org) Edition may be freely distributed, duplicated, performed, or recorded.
T:Copyright © 2008 by the Choral Public Domain Library (http://www.cpdl.org) Edition may be freely distributed, duplicated, performed, or recorded.
T:Copyright © 2008 by the Choral Public Domain Library (http://www.cpdl.org) Edition may be freely distributed, duplicated, performed, or recorded.
T:Copyright © 2008 by the Choral Public Domain Library (http://www.cpdl.org) Edition may be freely distributed, duplicated, performed, or recorded.
Z:Copyright © 2008 by the Choral Public Domain Library (http://www.cpdl.org)
Z:Edition may be freely distributed, duplicated, performed, or recorded.
%%score 1 2 3 { 4 | 5 | 6 | 7 }
L:1/8
Q:1/4=120
M:4/4
K:D
V:1 treble nm="Soprano"
V:2 treble transpose=-12 nm="Ténor"
V:3 bass nm="Basse"
V:4 treble nm="P4"
V:5 treble 
V:6 treble 
V:7 bass 
V:1
 z8 | z8 | z8 | z8 | z8 | z8 | z8 | z8 | z8 | z8 | z8 | z8 | z8 | d3 d B2 cd | e2 dc d2 (cB) | %15
w: |||||||||||||Do- mi- ne, non se-|cun- dum pec- ca- ta *|
 c4 c2 z2 | B3 ^G (^A2 F2) | (B3 ^G) ^A2 x2 | B3 F G2 FE | F4 F4 | F2 GA B2 A2 | (G3 A) F2 F2 | %22
w: no- stra|fa- ci- as *|no- * bis|ne- * que se- *|cun- dum|in- i- qui- ta- tes|no- * stras re-|
 G3 E (F2 B2) | (G3 E) F2 F2- | FF F2 (F2 G2) | G4 G4 | G3 G G2 A2 | A4 A4 | A4 G2 F2 | %29
w: tri- bu- as *|no- * bis. Ad-|* ju- va nos, *|De- us,|sa- lu- ta- ris|no- ster,|et pro- pter|
 B3 B (A2 G2) | =c4 c2 c2 | B4 B2 z2 | B3 B B4 | =c3 c c4 | d4 d2 d2 | e8 | E3 E A2 G=F | %37
w: glo- ri- am *|no- mi- nis|tu- i,|Do- mi- ne,|Do- mi- ne,|li- be- ra|nos,|et pro- pi- ti- us|
 E4 E2 z2 | z8 | z8 | F3 F B2 (AG) | F4 F2 z2 | z4 F4- | F2 F3 F F2 |][K:B] d3 d B2 cd | %45
w: e- sto|||pro- pter no- men *|tu- um,|O|* Do- mi- ne !|Do- mi- ne, non se-|
 e2 dc d2 cB | c4 c4 | e3 c (d2 B2) | (e3 c) d2 z2 | (f3 c) d2 (cB) | c4 c4 | c2 de f2 e2 | %52
w: cun- dum pec- ca- ta *|no- stra|fa- ci- as *|no- * bis,|ne- * que se- *|cun- dum|in- i- qui- ta- tes|
 (d3 e) c2 c2 | e3 c (B2 F2) | (e3 c) B2 z2 | B2 cd (e2 d2) | (c3 d) B4 | z8 | z8 | z8 | z4 z2 F2 | %61
w: no- * stras re|tri- bu- as *|no- * bis|re- tri- bu- as *|no- * bis.||||non|
 G2 A2 (B2 F2) | G2 A2 B2 z2 | z8 | z8 | z8 | z6 F2 | G2 A2 (B2 d2) | F4 F4 | F4 B3 F | F8 |] z8 | %72
w: fa- ci- as *|no- * bis,||||re-|tri- bu- as *|no- bis,|O Do- mi-|ne.||
V:2
 z8 | z8 | d3 d B2 cd | e2 dc d2 (cB) | c4 c2 z2 | e3 c (d2 B2) | (e3 c) d2 z2 | (d3 A) B2 (AG) | %8
w: ||Do- mi- ne, non se-|cun- dum pec- ca- ta *|no- stra|fa- ci- as *|no- * bis,|ne- * que se- *|
 A4 A4 | A2 Bc d2 c2 | (B3 c) c2 c2 | d3 B (c2 e2) | d3 B c4 | z8 | z6 B2 | B3 B ^A2 z2 | %16
w: cun- dum|in- i- qui- ta- tes|no- * stras re-|tri- bu- as *|no- * bis,||O|Do- mi- ne,|
 z2 d2 c2 z2 | z2 (dB) c2 c2 | ^d2 dd e2 c2 | (d2 cd B2 c2) | d2 z2 z2 (Ad) | (d2 c)c d2 B2 | %22
w: ne- que|se- * cun- dum|in- i- qui- ta- tes|no- * * * *|stras re- *|tri- * bu- as re-|
 B3 c (d2 B2) | B3 c ^A2 (F2 | ^d)d d2 d4 | e4 e4 | e3 e e2 e2 | e4 e4 | ^d4 d2 d2 | e3 e e4 | %30
w: tri- bu- as *|no- * bis. Ad-|* ju- va nos,|De- us,|sa- lu- ta- ris|no- ster|et pro- pter|glo- ri- am|
 e4 e2 e2 | ^d4 d2 z2 | e3 e e4 | e3 e (e2 =c2) | =c4 B2 =f2 | (e4 d4) | =c3 c A2 BB | =c4 c2 z2 | %38
w: no- mi- nis|tu- i,|Do- mi- ne,|Do- mi- ne, *|li- be- ra|nos, *|et pro- pi- ti- us|e- sto|
 z8 | z8 | d3 d B2 c2 | d4 d2 B2 | d3 B c2 e2 | d3 B c4 |][K:B] B2 B2 B2 B2 | B4 B2 B2 | B4 A4 | %47
w: ||pro- pter no- men|tu- um, O|Do- mi- ne, O|Do- mi- ne !|Non- se- cun- dum|pec- ca- ta|no- stra|
 B2 c2 (f2 d2) | (B2 c2) B2 f2- | f2 f4 f2 | f4 f4 | f2 ff f2 f2 | f4 f2 A2 | B2 c2 d4 | %54
w: fa- ci- as *|no- * bis, ne-|* que se-|cun- dum|in- i- qui- ta- tes|no- stras re-|tri- bu- as|
 (B2 c2) d2 z2 | G2 B2 B2 B2 | (B2 A2) B4 | z8 | z8 | z8 | z4 z2 d2 | B2 c2 d4 | B2 c2 d2 z2 | z8 | %64
w: no- * bis|re- tri- bu- as|no- * bis.||||non|fa- ci- as|no- * bis,||
 z8 | z8 | z6 F2 | e3 c (B2 F2) | (e3 c) d4 | d4 d3 d | d8 |] z8 | %72
w: ||re-|tri- bu- as *|no- * bis,|O Do- mi-|ne.||
V:3
 z8 | z8 | z8 | z8 | z8 | z8 | z8 | z8 | z8 | z8 | z8 | z8 | z8 | z8 | z8 | z8 | z8 | z8 | z8 | %19
w: |||||||||||||||||||
 z8 | z8 | z8 | z8 | z6 (F,2 | B,)B, B,2 B,4 | =C4 C4 | =C3 C C2 C2 | F,4 F,4 | B,,4 A,2 A,2 | %29
w: ||||Ad-|* ju- va nos,|De- us,|sa- lu- ta- ris|no- ster|et pro pter|
 G,3 G, =C4 | A,4 A,2 A,2 | A,4 A,2 z2 | G,3 G, G,4 | G,3 G, G,4 | G,4 G,2 G,2 | ^G,8 | %36
w: glo- ri- am|no- mi- nis|tu- i,|Do- mi- ne,|Do- mi- ne,|li- be- ra|nos,|
 A,3 A, =F,2 G,G, | A,4 A,2 A,2 | (=C3 A,) (B,2 D2) | (=C3 A,) B,4 | B,3 B, G,2 A,2 | B,4 B,2 z2 | %42
w: et pro- pi- ti- us|e- sto pec-|ca- * tis *|nos- * tris|pro- pter no- men|tu- um,|
 z8 | F,2 B,3 B, ^A,2 |][K:B] B,2 F,2 D,2 B,,2 | C,2 E,2 D,2 G,2 | F,4 F,4 | G,2 A,2 (B,2 F,2) | %48
w: |O Do- mi- ne!|non se- cun- dum|pec- * ca- ta|no- stra|fa- ci- as *|
 (G,2 A,2) B,4 | A,4 B,2 G,2 | A,4 A,4 | A,2 B,C D2 C2 | (B,3 G,) A,2 F,2 | G,2 A,2 B,4 | %54
w: no- * bis,|ne- que se-|cun- dum|in- i- qui- ta- tes|no- * stras re-|tri- bu- as|
 G,2 A,2 B,2 z2 | E,2 D,2 C,2 (D,E,) | F,4 B,,4 | B,3 F, (F,2 E,D,) | G,3 G, F,2 F,F, | %59
w: no- * bis|re- tri- bu- as *|no- bis.|Do- mi- ne, * *|Do- mi- ne, non se-|
 B,2 A,G, F,2 (E,D,) | G,4 F,4 | E,3 C, (B,,2 F,2) | E,3 C, B,,2 z2 | B,3 F, F,2 E,D, | %64
w: cun- dum pec- ca- ta *|no- stra|fa- ci- as *|no- * bis,|ne- * que se- *|
 G,4 F,2 z2 | B,2 A,G, F,2 (E,D,) | G,4 F,2 F,2 | F,2 F,2 (D2 B,2) | F,4 B,4 | B,4 F,3 B, | B,8 |] %71
w: cun- dum|i- ni- qui- ta- tes *|no- stras re-|tri- bu- as *|no- bis,|O Do- mi-|ne.|
 z8 | %72
w: |
V:4
 F2"^Instrument change" D2 F2 ^A2 | %1
"^Instrument change" B2"^Instrument change" z2"^Instrument change" B2 c2 | %2
 z8"^Instrument change""^Instrument change""^Instrument change" | %3
"^Instrument change" E2"^Instrument change" G2 F2 B,2 | %4
"^Instrument change" x4"^Instrument change" ^A2"^Instrument change" c2"^Instrument change" | %5
"^Instrument change" e3 c"^Instrument change" d2"^Instrument change" B2"^Instrument change" | %6
"^Instrument change" e3 c"^Instrument change" d4-"^Instrument change""^Instrument change" | %7
"^Instrument change" d3 A"^Instrument change" B2 AG"^Instrument change" | %8
"^Instrument change" A8-"^Instrument change""^Instrument change" | %9
"^Instrument change" A8-"^Instrument change""^Instrument change" | %10
"^Instrument change" A2 ^G4"^Instrument change" F2"^Instrument change" | %11
"^Instrument change" F8-"^Instrument change""^Instrument change""^Instrument change" | %12
"^Instrument change" F8-"^Instrument change""^Instrument change""^Instrument change" | %13
"^Instrument change" F4"^Instrument change" B4-"^Instrument change""^Instrument change" | %14
"^Instrument change" B8-"^Instrument change""^Instrument change" | %15
"^Instrument change" B4 ^A2"^Instrument change" F2"^Instrument change" | %16
"^Instrument change" B3 ^G"^Instrument change" ^A2 F2"^Instrument change" | %17
"^Instrument change" B3 ^G"^Instrument change" ^A2 F2"^Instrument change" | %18
"^Instrument change" B3 F"^Instrument change" G2"^Instrument change" FE"^Instrument change" | %19
"^Instrument change" F8-"^Instrument change""^Instrument change" | %20
"^Instrument change" F8"^Instrument change""^Instrument change" | %21
"^Instrument change" E4"^Instrument change" F2 F2"^Instrument change" | %22
"^Instrument change" G3"^Instrument change" E"^Instrument change" D2 B2"^Instrument change" | %23
"^Instrument change" G3"^Instrument change" C"^Instrument change" F2 F2"^Instrument change" | %24
"^Instrument change" F6 G2"^Instrument change""^Instrument change" | %25
"^Instrument change" G8"^Instrument change""^Instrument change" | %26
"^Instrument change" G6 A2"^Instrument change""^Instrument change" | %27
"^Instrument change" A8"^Instrument change""^Instrument change" | %28
"^Instrument change" A4 G2 F2"^Instrument change""^Instrument change" | %29
"^Instrument change" B4 A2 G2"^Instrument change""^Instrument change" | %30
"^Instrument change" =c8"^Instrument change""^Instrument change" | %31
"^Instrument change" B8"^Instrument change""^Instrument change" | %32
"^Instrument change" B8"^Instrument change" |"^Instrument change" =c8"^Instrument change" | %34
"^Instrument change" d4"^Instrument change" d2"^Instrument change" d2 | %35
"^Instrument change" e8"^Instrument change" | %36
"^Instrument change" E4"^Instrument change" A2"^Instrument change" G=F |"^Instrument change" E8- | %38
"^Instrument change" E8-"^Instrument change""^Instrument change" | %39
"^Instrument change" E8"^Instrument change""^Instrument change" | %40
"^Instrument change" F4"^Instrument change" B2"^Instrument change" AG"^Instrument change" | %41
"^Instrument change" F8- |"^Instrument change" F8-"^Instrument change""^Instrument change" | %43
"^Instrument change" F8"^Instrument change""^Instrument change" |] %44
[K:B]"^Instrument change" d4"^Instrument change" B2"^Instrument change" cd"^Instrument change" | %45
"^Instrument change" e2"^Instrument change" dc"^Instrument change" d2 cB | %46
"^Instrument change" c6"^Instrument change" c2"^Instrument change" | %47
"^Instrument change" e3 c"^Instrument change" d2"^Instrument change" B2"^Instrument change" | %48
"^Instrument change" e3 c"^Instrument change" d2"^Instrument change" B2"^Instrument change" | %49
"^Instrument change" f3 c"^Instrument change" d2"^Instrument change" cB"^Instrument change" | %50
"^Instrument change" c8 |"^Instrument change" c2 de"^Instrument change" f2"^Instrument change" e2 | %52
"^Instrument change" d3 e"^Instrument change" c2"^Instrument change" F2"^Instrument change" | %53
"^Instrument change" G2"^Instrument change" A2"^Instrument change" B2 F2 | %54
"^Instrument change" G2"^Instrument change" A2"^Instrument change" B4 | %55
"^Instrument change" B2"^Instrument change" cd"^Instrument change" e2 d2 | %56
"^Instrument change" c3 d"^Instrument change" [DFB]4"^Instrument change" | %57
"^Instrument change" B4 z4 |"^Instrument change" [CG]4"^Instrument change" [DF]4 | %59
"^Instrument change" B4 F4 | B,8"^Instrument change" | %61
"^Instrument change" G2"^Instrument change" A2"^Instrument change" B2 F2 | %62
"^Instrument change" G2"^Instrument change" A2"^Instrument change" B4"^Instrument change" | %63
"^Instrument change" B4"^Instrument change" F4 |"^Instrument change" G4"^Instrument change" F4 | %65
"^Instrument change" B2"^Instrument change" AG"^Instrument change" F2"^Instrument change" ED | %66
"^Instrument change" G4"^Instrument change" F2"^Instrument change" F2 | %67
"^Instrument change" G2"^Instrument change" A2"^Instrument change" B2 F2 | %68
"^Instrument change" F8"^Instrument change" |"^Instrument change" z8 | z8 |] z8 | %72
V:5
 D2 B,2 D2 C2 | B,2 D4 E2 | F6 D2 | z8 | C4- C2 F2 | E2 F4 D2 | E2 F2- F3 G | A2 D4 E2 | %8
 F2 EF D2 E2 | F2 E2 D2 C2 | B,4 B,2 E2 | D3 B, C2 E2 | D3 B, C2 E2 | D4 F2 D2 | E2 G2 F2 B,2 | %15
 C6 ^A,2 | B,2 D2 C2 ^A,2 | B,2 D2 C2 ^A,2 | ^D4 E2 C2 | D2 CD B,2 C2 | D2 C2 B,2 A,D | %21
 D2 C2 D2 D2 | B,3 C D2 B,2 | B,3 C ^A,2 F2 | ^DB,DB, DB,DB, | E=CEC ECEC | E=CEC ECEC | %27
 E=CEC C2 E2 | ^DB,DB, DB,DB, | EB,EG E=CEC | E=CEA ECEA | ^DB,DA FDFA | ^G8 | G8 | G4 =F2 F2 | %35
 (E4 D4) | =C4 A,2 B,2 | =C8 | A,3 A, B,2 D2 | =C3 A, B,4 | D4 B,2 C2 | D8 | D3 B, C2 E2 | D4 C4 |] %44
[K:B] D4 F4 | E2 G2 F2 D2 | F6 F2 | E2 F4 D2 | E2 F6 | F8- | F8 | F8- | F4- F2 F2 | %53
 B,2 C2 [DF]2 [B,D]2 | B,2 C2 [DF]4 | E2 F2 G2 F2 | [EF]4 z4 | B,8- | B,8 | D8 | z8 | %61
 B,2 C2 F2 D2 | B,2 C2 D4 | D8 | C4 D4 | D4 C2 B,2 | C4 D2 D2 | B,2 C2 D2 B,2 | E4 D4 | z8 | z8 |] %71
 z8 | %72
V:6
 z8 | x2 F2- F4 | d4 B4- | B8- | B4 z4 | z8 | z8 | z8 | z8 | z8 | x6 ^A,2 | B,3 ^G, A,2 C2 | %12
 B,3 ^G, ^A,2 B,C | z8 | z8 | z8 | z8 | z8 | z8 | z8 | z8 | z8 | z8 | z8 | z8 | z8 | z8 | z8 | z8 | %29
 z8 | z8 | z8 | z8 | z8 | =C4 B,2 B,2 | z8 | z8 | z8 | A,3 F, ^G,2 B,2 | A,3 F, B,4 | B,4 x4 | z8 | %42
 B,3 ^G, ^A,2 C2 | B,4 B,2 ^A,2 |][K:B] z8 | z8 | z8 | z8 | z8 | z8 | z8 | z8 | z8 | E4 x4 | %54
 E4 x4 | z8 | z8 | z8 | z8 | z8 | z8 | E4 D2 B,2 | E4 F4 | B,8- | B,8 | z8 | B,4 B,2 B,2 | %67
 D4 F2 D2 | A,4 B,4 | z8 | z8 |] z8 | %72
V:7
 B,,8- | B,,8 | B,2 F,2 D,2 B,,2 | C,2 E,2 D,2 G,2 | F,2 C,2 F,,2 ^A,2 | B,2 C2 B,4- | %6
 B,2 C2 B,2 x2 | z2 =C2 B,4 | z8 | z8 | F,4 ^E,2 F,2 | F,8- | F,4- F,2 x2 | B,2 F,2 D,2 B,,2 | %14
 C,2 E,2 D,2 G,2 | F,2 C,2 F,,2 E,2 | D,2 B,,2 F,,2 E,2 | D,2 B,,2 F,,2 F,2 | B,,2 B,2 E,2 G,2 | %19
 B,2 F,2 ^G,2 ^A,2 | B,2 A,2 G,2 D,2 | A,,2 A,2 D,2 D,2 | G,,2 A,,2 D,2 G,2 | E,2 G,2 F,2 F,2 | %24
 B,,F,B,,F, B,,F,B,,G, | =C,G,C,G, C,G,C,G, | =C,G,C,G, C,G,C,A, | F,,=C,F,A, =CA,G,F, | %28
 B,,F,B,,F, A,4 | G,E,G,B, =C4 | A,,E,A,B, =CA,E,A,, | B,,F,A,F, ^D,B,,A,,F,, | B,,E,^G,B, E4 | %33
 =C,E,G,=C E2 C2 | G,,4 G,,2 G,,2 | B,8 | A,4 =F,2 G,2 | A,8 | z8 | z8 | F,2 B,2 G,2 A,2 | B,8 | %42
 z8 | z8 |][K:B] B,8- | B,8- | B,4 A,2 A,2 | B,2 C2 B,2 B,2 | B,2 C2 B,4 | C4 B,2 G,2 | A,8 | %51
 C4 B,2 C2 | D2 B,2 C2 E2 | z8 | x4 z2 B,A, | G,2 B,6- | B,2 A,2 B,4 | F,8 | E,4 F,4 | F,8 | %60
 E,4 x4 | F,,4 B,,4 | F,,4- F,,B,,D,C, | =A,4- A,2 G,F, | E,4 F,4 | F,2 B,2 A,2 G,F, | E,4 F,4 | %67
 F,,4 B,,4 | F,,4 B,,4 | z8 | z8 |] z8 | %72

